!!!PDT:	1923
!!!LANG: Non-Tone
!!!LING_GROUP: Siouan
!!!REG: Dakotas
!!!COM: Anon.
!!!OTL: The Enemy Came as a Wolf
!!!ODT: <1918//
!!!MPN: Wopite [Scattered Corn, Mrs. Holding Eagle]
!!!MLC: Fort Berthold Reservation, North Dakota, United States of America
!! Song was recorded during either the summer of 1912, 1915, or 1918.
!!!AGN: monody
!!!SOCIAL_FUNCTION: Mandan and Hidatsa War Songs
!!!AMT: irregular
!!!RWG: Transcribed pitches, durations, and meters are only approximate.
!! Drum Tempo: MM84
!! Drum-rhythm: (4 4 4 4)
**kern
*ICvox
*Ifemale
*clefG2
*k[b-]
*M2/4
*MM84
=1-
4cc
16cc
16a
8g
=2
16cc
8.g
16g
16f
8f
=3
4f
8.f
16c
=4
16g
8.f
8g
8f
=5
4f
8.f
16c
=6
! eighth changed to sixteenth
16g
8.f
8f
16f
16c
=7
8c
8c
4c
=8
16a
8.f
8f
16f
16c
=9
8c
8c
4c
=10
2r
=11
8cc
8cc
(16cc
16a)
8g
=12
16cc
8.g
(16g
16f)
8f
=13
(4..f
16c)
=14
16f
8.f
8g
8f
=15
8f
8f
(8.f
16c)
=16
16a
8.f
8f
(16f
16c)
=17
8c
8c
4c
=18
16a
8.f
8f
16f
16c
=19
8c
8c
4c
=20
16a
8.f
8f
(16f
16c)
=21
8c
8c
4c
=22
16a
8.f
8f
16f
16c
=23
8c
8c
4c
==
*-
!!!CNT: Mandan
!!!TXO: Mandan
!!!OCY: United States
!!!OCL: Frances Densmore
!!!YOR: Frances Densmore, "Mandan and Hidatsa Music",
!!!YOR: Bulletin 80, page 161, No. 93
!!!PPR: Smithsonian Institution, Bureau of American Ethnology
!!!PPR: Government Printing Office
!!!PDT: 1923
!!!PPP: Washington, DC, United States of America
!!!YEC: Electronic Copyright 2000 David Huron
!!!YER: August 2000
!!!YEN: United States of America
!!!ENC: David Huron
!!!RDT: August 18, 2000
!!!EEV: Release 1.0
!!!AIN: tom, vox
